<?xml version="1.0" encoding="UTF-8"?>
<map version="1.10" tiledversion="1.11.2" orientation="orthogonal" renderorder="left-up" width="100"
  height="100" tilewidth="32" tileheight="32" infinite="0" nextlayerid="2" nextobjectid="1">
  <tileset firstgid="65" source="../tilesets/dungeon_floor.tsx" />
  <layer id="1" name="Calque de Tuiles 1" width="100" height="100">
    <data encoding="csv">
      65,66,67,68,69,70,71,65,66,67,68,69,70,71,65,66,67,68,69,70,71,65,66,67,68,69,70,71,65,66,67,68,69,70,71,65,66,67,68,69,70,71,65,66,67,68,69,70,71,65,66,67,68,69,70,71,65,66,67,68,69,70,71,65,66,67,68,69,70,71,65,66,67,68,69,70,71,65,66,67,68,69,70,71,65,66,67,68,69,70,71,65,66,67,68,69,70,71,65,66,
      72,73,74,75,76,77,78,72,73,74,75,76,77,78,72,73,74,75,76,77,78,72,73,74,75,76,77,78,72,73,74,75,76,77,78,72,73,74,75,76,77,78,72,73,74,75,76,77,78,72,73,74,75,76,77,78,72,73,74,75,76,77,78,72,73,74,75,76,77,78,72,73,74,75,76,77,78,72,73,74,75,76,77,78,72,73,74,75,76,77,78,72,73,74,75,76,77,78,72,73,
      79,80,81,82,83,84,85,79,80,81,82,83,84,85,79,80,81,82,83,84,85,79,80,81,82,83,84,85,79,80,81,82,83,84,85,79,80,81,82,83,84,85,79,80,81,82,83,84,85,79,80,81,82,83,84,85,79,80,81,82,83,84,85,79,80,81,82,83,84,85,79,80,81,82,83,84,85,79,80,81,82,83,84,85,79,80,81,82,83,84,85,79,80,81,82,83,84,85,79,80,
      86,87,88,89,90,91,92,86,87,88,89,90,91,92,86,87,88,89,90,91,92,86,87,88,89,90,91,92,86,87,88,89,90,91,92,86,87,88,89,90,91,92,86,87,88,89,90,91,92,86,87,88,89,90,91,92,86,87,88,89,90,91,92,86,87,88,89,90,91,92,86,87,88,89,90,91,92,86,87,88,89,90,91,92,86,87,88,89,90,91,92,86,87,88,89,90,91,92,86,87,
      93,94,95,96,97,98,99,93,94,95,96,97,98,99,93,94,95,96,97,98,99,93,94,95,96,97,98,99,93,94,95,96,97,98,99,93,94,95,96,97,98,99,93,94,95,96,97,98,99,93,94,95,96,97,98,99,93,94,95,96,97,98,99,93,94,95,96,97,98,99,93,94,95,96,97,98,99,93,94,95,96,97,98,99,93,94,95,96,97,98,99,93,94,95,96,97,98,99,93,94,
      100,101,102,103,104,105,106,100,101,102,103,104,105,106,100,101,102,103,104,105,106,100,101,102,103,104,105,106,100,101,102,103,104,105,106,100,101,102,103,104,105,106,100,101,102,103,104,105,106,100,101,102,103,104,105,106,100,101,102,103,104,105,106,100,101,102,103,104,105,106,100,101,102,103,104,105,106,100,101,102,103,104,105,106,100,101,102,103,104,105,106,100,101,102,103,104,105,106,100,101,
      107,108,109,110,111,112,113,107,108,109,110,111,112,113,107,108,109,110,111,112,113,107,108,109,110,111,112,113,107,108,109,110,111,112,113,107,108,109,110,111,112,113,107,108,109,110,111,112,113,107,108,109,110,111,112,113,107,108,109,110,111,112,113,107,108,109,110,111,112,113,107,108,109,110,111,112,113,107,108,109,110,111,112,113,107,108,109,110,111,112,113,107,108,109,110,111,112,113,107,108,
      65,66,67,68,69,70,71,65,66,67,68,69,70,71,65,66,67,68,69,70,71,65,66,67,68,69,70,71,65,66,67,68,69,70,71,65,66,67,68,69,70,71,65,66,67,68,69,70,71,65,66,67,68,69,70,71,65,66,67,68,69,70,71,65,66,67,68,69,70,71,65,66,67,68,69,70,71,65,66,67,68,69,70,71,65,66,67,68,69,70,71,65,66,67,68,69,70,71,65,66,
      72,73,74,75,76,77,78,72,73,74,75,76,77,78,72,73,74,75,76,77,78,72,73,74,75,76,77,78,72,73,74,75,76,77,78,72,73,74,75,76,77,78,72,73,74,75,76,77,78,72,73,74,75,76,77,78,72,73,74,75,76,77,78,72,73,74,75,76,77,78,72,73,74,75,76,77,78,72,73,74,75,76,77,78,72,73,74,75,76,77,78,72,73,74,75,76,77,78,72,73,
      79,80,81,82,83,84,85,79,80,81,82,83,84,85,79,80,81,82,83,84,85,79,80,81,82,83,84,85,79,80,81,82,83,84,85,79,80,81,82,83,84,85,79,80,81,82,83,84,85,79,80,81,82,83,84,85,79,80,81,82,83,84,85,79,80,81,82,83,84,85,79,80,81,82,83,84,85,79,80,81,82,83,84,85,79,80,81,82,83,84,85,79,80,81,82,83,84,85,79,80,
      86,87,88,89,90,91,92,86,87,88,89,90,91,92,86,87,88,89,90,91,92,86,87,88,89,90,91,92,86,87,88,89,90,91,92,86,87,88,89,90,91,92,86,87,88,89,90,91,92,86,87,88,89,90,91,92,86,87,88,89,90,91,92,86,87,88,89,90,91,92,86,87,88,89,90,91,92,86,87,88,89,90,91,92,86,87,88,89,90,91,92,86,87,88,89,90,91,92,86,87,
      93,94,95,96,97,98,99,93,94,95,96,97,98,99,93,94,95,96,97,98,99,93,94,95,96,97,98,99,93,94,95,96,97,98,99,93,94,95,96,97,98,99,93,94,95,96,97,98,99,93,94,95,96,97,98,99,93,94,95,96,97,98,99,93,94,95,96,97,98,99,93,94,95,96,97,98,99,93,94,95,96,97,98,99,93,94,95,96,97,98,99,93,94,95,96,97,98,99,93,94,
      100,101,102,103,104,105,106,100,101,102,103,104,105,106,100,101,102,103,104,105,106,100,101,102,103,104,105,106,100,101,102,103,104,105,106,100,101,102,103,104,105,106,100,101,102,103,104,105,106,100,101,102,103,104,105,106,100,101,102,103,104,105,106,100,101,102,103,104,105,106,100,101,102,103,104,105,106,100,101,102,103,104,105,106,100,101,102,103,104,105,106,100,101,102,103,104,105,106,100,101,
      107,108,109,110,111,112,113,107,108,109,110,111,112,113,107,108,109,110,111,112,113,107,108,109,110,111,112,113,107,108,109,110,111,112,113,107,108,109,110,111,112,113,107,108,109,110,111,112,113,107,108,109,110,111,112,113,107,108,109,110,111,112,113,107,108,109,110,111,112,113,107,108,109,110,111,112,113,107,108,109,110,111,112,113,107,108,109,110,111,112,113,107,108,109,110,111,112,113,107,108,
      65,66,67,68,69,70,71,65,66,67,68,69,70,71,65,66,67,68,69,70,71,65,66,67,68,69,70,71,65,66,67,68,69,70,71,65,66,67,68,69,70,71,65,66,67,68,69,70,71,65,66,67,68,69,70,71,65,66,67,68,69,70,71,65,66,67,68,69,70,71,65,66,67,68,69,70,71,65,66,67,68,69,70,71,65,66,67,68,69,70,71,65,66,67,68,69,70,71,65,66,
      72,73,74,75,76,77,78,72,73,74,75,76,77,78,72,73,74,75,76,77,78,72,73,74,75,76,77,78,72,73,74,75,76,77,78,72,73,74,75,76,77,78,72,73,74,75,76,77,78,72,73,74,75,76,77,78,72,73,74,75,76,77,78,72,73,74,75,76,77,78,72,73,74,75,76,77,78,72,73,74,75,76,77,78,72,73,74,75,76,77,78,72,73,74,75,76,77,78,72,73,
      79,80,81,82,83,84,85,79,80,81,82,83,84,85,79,80,81,82,83,84,85,79,80,81,82,83,84,85,79,80,81,82,83,84,85,79,80,81,82,83,84,85,79,80,81,82,83,84,85,79,80,81,82,83,84,85,79,80,81,82,83,84,85,79,80,81,82,83,84,85,79,80,81,82,83,84,85,79,80,81,82,83,84,85,79,80,81,82,83,84,85,79,80,81,82,83,84,85,79,80,
      86,87,88,89,90,91,92,86,87,88,89,90,91,92,86,87,88,89,90,91,92,86,87,88,89,90,91,92,86,87,88,89,90,91,92,86,87,88,89,90,91,92,86,87,88,89,90,91,92,86,87,88,89,90,91,92,86,87,88,89,90,91,92,86,87,88,89,90,91,92,86,87,88,89,90,91,92,86,87,88,89,90,91,92,86,87,88,89,90,91,92,86,87,88,89,90,91,92,86,87,
      93,94,95,96,97,98,99,93,94,95,96,97,98,99,93,94,95,96,97,98,99,93,94,95,96,97,98,99,93,94,95,96,97,98,99,93,94,95,96,97,98,99,93,94,95,96,97,98,99,93,94,95,96,97,98,99,93,94,95,96,97,98,99,93,94,95,96,97,98,99,93,94,95,96,97,98,99,93,94,95,96,97,98,99,93,94,95,96,97,98,99,93,94,95,96,97,98,99,93,94,
      100,101,102,103,104,105,106,100,101,102,103,104,105,106,100,101,102,103,104,105,106,100,101,102,103,104,105,106,100,101,102,103,104,105,106,100,101,102,103,104,105,106,100,101,102,103,104,105,106,100,101,102,103,104,105,106,100,101,102,103,104,105,106,100,101,102,103,104,105,106,100,101,102,103,104,105,106,100,101,102,103,104,105,106,100,101,102,103,104,105,106,100,101,102,103,104,105,106,100,101,
      107,108,109,110,111,112,113,107,108,109,110,111,112,113,107,108,109,110,111,112,113,107,108,109,110,111,112,113,107,108,109,110,111,112,113,107,108,109,110,111,112,113,107,108,109,110,111,112,113,107,108,109,110,111,112,113,107,108,109,110,111,112,113,107,108,109,110,111,112,113,107,108,109,110,111,112,113,107,108,109,110,111,112,113,107,108,109,110,111,112,113,107,108,109,110,111,112,113,107,108,
      65,66,67,68,69,70,71,65,66,67,68,69,70,71,65,66,67,68,69,70,71,65,66,67,68,69,70,71,65,66,67,68,69,70,71,65,66,67,68,69,70,71,65,66,67,68,69,70,71,65,66,67,68,69,70,71,65,66,67,68,69,70,71,65,66,67,68,69,70,71,65,66,67,68,69,70,71,65,66,67,68,69,70,71,65,66,67,68,69,70,71,65,66,67,68,69,70,71,65,66,
      72,73,74,75,76,77,78,72,73,74,75,76,77,78,72,73,74,75,76,77,78,72,73,74,75,76,77,78,72,73,74,75,76,77,78,72,73,74,75,76,77,78,72,73,74,75,76,77,78,72,73,74,75,76,77,78,72,73,74,75,76,77,78,72,73,74,75,76,77,78,72,73,74,75,76,77,78,72,73,74,75,76,77,78,72,73,74,75,76,77,78,72,73,74,75,76,77,78,72,73,
      79,80,81,82,83,84,85,79,80,81,82,83,84,85,79,80,81,82,83,84,85,79,80,81,82,83,84,85,79,80,81,82,83,84,85,79,80,81,82,83,84,85,79,80,81,82,83,84,85,79,80,81,82,83,84,85,79,80,81,82,83,84,85,79,80,81,82,83,84,85,79,80,81,82,83,84,85,79,80,81,82,83,84,85,79,80,81,82,83,84,85,79,80,81,82,83,84,85,79,80,
      86,87,88,89,90,91,92,86,87,88,89,90,91,92,86,87,88,89,90,91,92,86,87,88,89,90,91,92,86,87,88,89,90,91,92,86,87,88,89,90,91,92,86,87,88,89,90,91,92,86,87,88,89,90,91,92,86,87,88,89,90,91,92,86,87,88,89,90,91,92,86,87,88,89,90,91,92,86,87,88,89,90,91,92,86,87,88,89,90,91,92,86,87,88,89,90,91,92,86,87,
      93,94,95,96,97,98,99,93,94,95,96,97,98,99,93,94,95,96,97,98,99,93,94,95,96,97,98,99,93,94,95,96,97,98,99,93,94,95,96,97,98,99,93,94,95,96,97,98,99,93,94,95,96,97,98,99,93,94,95,96,97,98,99,93,94,95,96,97,98,99,93,94,95,96,97,98,99,93,94,95,96,97,98,99,93,94,95,96,97,98,99,93,94,95,96,97,98,99,93,94,
      100,101,102,103,104,105,106,100,101,102,103,104,105,106,100,101,102,103,104,105,106,100,101,102,103,104,105,106,100,101,102,103,104,105,106,100,101,102,103,104,105,106,100,101,102,103,104,105,106,100,101,102,103,104,105,106,100,101,102,103,104,105,106,100,101,102,103,104,105,106,100,101,102,103,104,105,106,100,101,102,103,104,105,106,100,101,102,103,104,105,106,100,101,102,103,104,105,106,100,101,
      107,108,109,110,111,112,113,107,108,109,110,111,112,113,107,108,109,110,111,112,113,107,108,109,110,111,112,113,107,108,109,110,111,112,113,107,108,109,110,111,112,113,107,108,109,110,111,112,113,107,108,109,110,111,112,113,107,108,109,110,111,112,113,107,108,109,110,111,112,113,107,108,109,110,111,112,113,107,108,109,110,111,112,113,107,108,109,110,111,112,113,107,108,109,110,111,112,113,107,108,
      65,66,67,68,69,70,71,65,66,67,68,69,70,71,65,66,67,68,69,70,71,65,66,67,68,69,70,71,65,66,67,68,69,70,71,65,66,67,68,69,70,71,65,66,67,68,69,70,71,65,66,67,68,69,70,71,65,66,67,68,69,70,71,65,66,67,68,69,70,71,65,66,67,68,69,70,71,65,66,67,68,69,70,71,65,66,67,68,69,70,71,65,66,67,68,69,70,71,65,66,
      72,73,74,75,76,77,78,72,73,74,75,76,77,78,72,73,74,75,76,77,78,72,73,74,75,76,77,78,72,73,74,75,76,77,78,72,73,74,75,76,77,78,72,73,74,75,76,77,78,72,73,74,75,76,77,78,72,73,74,75,76,77,78,72,73,74,75,76,77,78,72,73,74,75,76,77,78,72,73,74,75,76,77,78,72,73,74,75,76,77,78,72,73,74,75,76,77,78,72,73,
      79,80,81,82,83,84,85,79,80,81,82,83,84,85,79,80,81,82,83,84,85,79,80,81,82,83,84,85,79,80,81,82,83,84,85,79,80,81,82,83,84,85,79,80,81,82,83,84,85,79,80,81,82,83,84,85,79,80,81,82,83,84,85,79,80,81,82,83,84,85,79,80,81,82,83,84,85,79,80,81,82,83,84,85,79,80,81,82,83,84,85,79,80,81,82,83,84,85,79,80,
      86,87,88,89,90,91,92,86,87,88,89,90,91,92,86,87,88,89,90,91,92,86,87,88,89,90,91,92,86,87,88,89,90,91,92,86,87,88,89,90,91,92,86,87,88,89,90,91,92,86,87,88,89,90,91,92,86,87,88,89,90,91,92,86,87,88,89,90,91,92,86,87,88,89,90,91,92,86,87,88,89,90,91,92,86,87,88,89,90,91,92,86,87,88,89,90,91,92,86,87,
      93,94,95,96,97,98,99,93,94,95,96,97,98,99,93,94,95,96,97,98,99,93,94,95,96,97,98,99,93,94,95,96,97,98,99,93,94,95,96,97,98,99,93,94,95,96,97,98,99,93,94,95,96,97,98,99,93,94,95,96,97,98,99,93,94,95,96,97,98,99,93,94,95,96,97,98,99,93,94,95,96,97,98,99,93,94,95,96,97,98,99,93,94,95,96,97,98,99,93,94,
      100,101,102,103,104,105,106,100,101,102,103,104,105,106,100,101,102,103,104,105,106,100,101,102,103,104,105,106,100,101,102,103,104,105,106,100,101,102,103,104,105,106,100,101,102,103,104,105,106,100,101,102,103,104,105,106,100,101,102,103,104,105,106,100,101,102,103,104,105,106,100,101,102,103,104,105,106,100,101,102,103,104,105,106,100,101,102,103,104,105,106,100,101,102,103,104,105,106,100,101,
      107,108,109,110,111,112,113,107,108,109,110,111,112,113,107,108,109,110,111,112,113,107,108,109,110,111,112,113,107,108,109,110,111,112,113,107,108,109,110,111,112,113,107,108,109,110,111,112,113,107,108,109,110,111,112,113,107,108,109,110,111,112,113,107,108,109,110,111,112,113,107,108,109,110,111,112,113,107,108,109,110,111,112,113,107,108,109,110,111,112,113,107,108,109,110,111,112,113,107,108,
      65,66,67,68,69,70,71,65,66,67,68,69,70,71,65,66,67,68,69,70,71,65,66,67,68,69,70,71,65,66,67,68,69,70,71,65,66,67,68,69,70,71,65,66,67,68,69,70,71,65,66,67,68,69,70,71,65,66,67,68,69,70,71,65,66,67,68,69,70,71,65,66,67,68,69,70,71,65,66,67,68,69,70,71,65,66,67,68,69,70,71,65,66,67,68,69,70,71,65,66,
      72,73,74,75,76,77,78,72,73,74,75,76,77,78,72,73,74,75,76,77,78,72,73,74,75,76,77,78,72,73,74,75,76,77,78,72,73,74,75,76,77,78,72,73,74,75,76,77,78,72,73,74,75,76,77,78,72,73,74,75,76,77,78,72,73,74,75,76,77,78,72,73,74,75,76,77,78,72,73,74,75,76,77,78,72,73,74,75,76,77,78,72,73,74,75,76,77,78,72,73,
      79,80,81,82,83,84,85,79,80,81,82,83,84,85,79,80,81,82,83,84,85,79,80,81,82,83,84,85,79,80,81,82,83,84,85,79,80,81,82,83,84,85,79,80,81,82,83,84,85,79,80,81,82,83,84,85,79,80,81,82,83,84,85,79,80,81,82,83,84,85,79,80,81,82,83,84,85,79,80,81,82,83,84,85,79,80,81,82,83,84,85,79,80,81,82,83,84,85,79,80,
      86,87,88,89,90,91,92,86,87,88,89,90,91,92,86,87,88,89,90,91,92,86,87,88,89,90,91,92,86,87,88,89,90,91,92,86,87,88,89,90,91,92,86,87,88,89,90,91,92,86,87,88,89,90,91,92,86,87,88,89,90,91,92,86,87,88,89,90,91,92,86,87,88,89,90,91,92,86,87,88,89,90,91,92,86,87,88,89,90,91,92,86,87,88,89,90,91,92,86,87,
      93,94,95,96,97,98,99,93,94,95,96,97,98,99,93,94,95,96,97,98,99,93,94,95,96,97,98,99,93,94,95,96,97,98,99,93,94,95,96,97,98,99,93,94,95,96,97,98,99,93,94,95,96,97,98,99,93,94,95,96,97,98,99,93,94,95,96,97,98,99,93,94,95,96,97,98,99,93,94,95,96,97,98,99,93,94,95,96,97,98,99,93,94,95,96,97,98,99,93,94,
      100,101,102,103,104,105,106,100,101,102,103,104,105,106,100,101,102,103,104,105,106,100,101,102,103,104,105,106,100,101,102,103,104,105,106,100,101,102,103,104,105,106,100,101,102,103,104,105,106,100,101,102,103,104,105,106,100,101,102,103,104,105,106,100,101,102,103,104,105,106,100,101,102,103,104,105,106,100,101,102,103,104,105,106,100,101,102,103,104,105,106,100,101,102,103,104,105,106,100,101,
      107,108,109,110,111,112,113,107,108,109,110,111,112,113,107,108,109,110,111,112,113,107,108,109,110,111,112,113,107,108,109,110,111,112,113,107,108,109,110,111,112,113,107,108,109,110,111,112,113,107,108,109,110,111,112,113,107,108,109,110,111,112,113,107,108,109,110,111,112,113,107,108,109,110,111,112,113,107,108,109,110,111,112,113,107,108,109,110,111,112,113,107,108,109,110,111,112,113,107,108,
      65,66,67,68,69,70,71,65,66,67,68,69,70,71,65,66,67,68,69,70,71,65,66,67,68,69,70,71,65,66,67,68,69,70,71,65,66,67,68,69,70,71,65,66,67,68,69,70,71,65,66,67,68,69,70,71,65,66,67,68,69,70,71,65,66,67,68,69,70,71,65,66,67,68,69,70,71,65,66,67,68,69,70,71,65,66,67,68,69,70,71,65,66,67,68,69,70,71,65,66,
      72,73,74,75,76,77,78,72,73,74,75,76,77,78,72,73,74,75,76,77,78,72,73,74,75,76,77,78,72,73,74,75,76,77,78,72,73,74,75,76,77,78,72,73,74,75,76,77,78,72,73,74,75,76,77,78,72,73,74,75,76,77,78,72,73,74,75,76,77,78,72,73,74,75,76,77,78,72,73,74,75,76,77,78,72,73,74,75,76,77,78,72,73,74,75,76,77,78,72,73,
      79,80,81,82,83,84,85,79,80,81,82,83,84,85,79,80,81,82,83,84,85,79,80,81,82,83,84,85,79,80,81,82,83,84,85,79,80,81,82,83,84,85,79,80,81,82,83,84,85,79,80,81,82,83,84,85,79,80,81,82,83,84,85,79,80,81,82,83,84,85,79,80,81,82,83,84,85,79,80,81,82,83,84,85,79,80,81,82,83,84,85,79,80,81,82,83,84,85,79,80,
      86,87,88,89,90,91,92,86,87,88,89,90,91,92,86,87,88,89,90,91,92,86,87,88,89,90,91,92,86,87,88,89,90,91,92,86,87,88,89,90,91,92,86,87,88,89,90,91,92,86,87,88,89,90,91,92,86,87,88,89,90,91,92,86,87,88,89,90,91,92,86,87,88,89,90,91,92,86,87,88,89,90,91,92,86,87,88,89,90,91,92,86,87,88,89,90,91,92,86,87,
      93,94,95,96,97,98,99,93,94,95,96,97,98,99,93,94,95,96,97,98,99,93,94,95,96,97,98,99,93,94,95,96,97,98,99,93,94,95,96,97,98,99,93,94,95,96,97,98,99,93,94,95,96,97,98,99,93,94,95,96,97,98,99,93,94,95,96,97,98,99,93,94,95,96,97,98,99,93,94,95,96,97,98,99,93,94,95,96,97,98,99,93,94,95,96,97,98,99,93,94,
      100,101,102,103,104,105,106,100,101,102,103,104,105,106,100,101,102,103,104,105,106,100,101,102,103,104,105,106,100,101,102,103,104,105,106,100,101,102,103,104,105,106,100,101,102,103,104,105,106,100,101,102,103,104,105,106,100,101,102,103,104,105,106,100,101,102,103,104,105,106,100,101,102,103,104,105,106,100,101,102,103,104,105,106,100,101,102,103,104,105,106,100,101,102,103,104,105,106,100,101,
      107,108,109,110,111,112,113,107,108,109,110,111,112,113,107,108,109,110,111,112,113,107,108,109,110,111,112,113,107,108,109,110,111,112,113,107,108,109,110,111,112,113,107,108,109,110,111,112,113,107,108,109,110,111,112,113,107,108,109,110,111,112,113,107,108,109,110,111,112,113,107,108,109,110,111,112,113,107,108,109,110,111,112,113,107,108,109,110,111,112,113,107,108,109,110,111,112,113,107,108,
      65,66,67,68,69,70,71,65,66,67,68,69,70,71,65,66,67,68,69,70,71,65,66,67,68,69,70,71,65,66,67,68,69,70,71,65,66,67,68,69,70,71,65,66,67,68,69,70,71,65,66,67,68,69,70,71,65,66,67,68,69,70,71,65,66,67,68,69,70,71,65,66,67,68,69,70,71,65,66,67,68,69,70,71,65,66,67,68,69,70,71,65,66,67,68,69,70,71,65,66,
      72,73,74,75,76,77,78,72,73,74,75,76,77,78,72,73,74,75,76,77,78,72,73,74,75,76,77,78,72,73,74,75,76,77,78,72,73,74,75,76,77,78,72,73,74,75,76,77,78,72,73,74,75,76,77,78,72,73,74,75,76,77,78,72,73,74,75,76,77,78,72,73,74,75,76,77,78,72,73,74,75,76,77,78,72,73,74,75,76,77,78,72,73,74,75,76,77,78,72,73,
      79,80,81,82,83,84,85,79,80,81,82,83,84,85,79,80,81,82,83,84,85,79,80,81,82,83,84,85,79,80,81,82,83,84,85,79,80,81,82,83,84,85,79,80,81,82,83,84,85,79,80,81,82,83,84,85,79,80,81,82,83,84,85,79,80,81,82,83,84,85,79,80,81,82,83,84,85,79,80,81,82,83,84,85,79,80,81,82,83,84,85,79,80,81,82,83,84,85,79,80,
      86,87,88,89,90,91,92,86,87,88,89,90,91,92,86,87,88,89,90,91,92,86,87,88,89,90,91,92,86,87,88,89,90,91,92,86,87,88,89,90,91,92,86,87,88,89,90,91,92,86,87,88,89,90,91,92,86,87,88,89,90,91,92,86,87,88,89,90,91,92,86,87,88,89,90,91,92,86,87,88,89,90,91,92,86,87,88,89,90,91,92,86,87,88,89,90,91,92,86,87,
      93,94,95,96,97,98,99,93,94,95,96,97,98,99,93,94,95,96,97,98,99,93,94,95,96,97,98,99,93,94,95,96,97,98,99,93,94,95,96,97,98,99,93,94,95,96,97,98,99,93,94,95,96,97,98,99,93,94,95,96,97,98,99,93,94,95,96,97,98,99,93,94,95,96,97,98,99,93,94,95,96,97,98,99,93,94,95,96,97,98,99,93,94,95,96,97,98,99,93,94,
      100,101,102,103,104,105,106,100,101,102,103,104,105,106,100,101,102,103,104,105,106,100,101,102,103,104,105,106,100,101,102,103,104,105,106,100,101,102,103,104,105,106,100,101,102,103,104,105,106,100,101,102,103,104,105,106,100,101,102,103,104,105,106,100,101,102,103,104,105,106,100,101,102,103,104,105,106,100,101,102,103,104,105,106,100,101,102,103,104,105,106,100,101,102,103,104,105,106,100,101,
      107,108,109,110,111,112,113,107,108,109,110,111,112,113,107,108,109,110,111,112,113,107,108,109,110,111,112,113,107,108,109,110,111,112,113,107,108,109,110,111,112,113,107,108,109,110,111,112,113,107,108,109,110,111,112,113,107,108,109,110,111,112,113,107,108,109,110,111,112,113,107,108,109,110,111,112,113,107,108,109,110,111,112,113,107,108,109,110,111,112,113,107,108,109,110,111,112,113,107,108,
      65,66,67,68,69,70,71,65,66,67,68,69,70,71,65,66,67,68,69,70,71,65,66,67,68,69,70,71,65,66,67,68,69,70,71,65,66,67,68,69,70,71,65,66,67,68,69,70,71,65,66,67,68,69,70,71,65,66,67,68,69,70,71,65,66,67,68,69,70,71,65,66,67,68,69,70,71,65,66,67,68,69,70,71,65,66,67,68,69,70,71,65,66,67,68,69,70,71,65,66,
      72,73,74,75,76,77,78,72,73,74,75,76,77,78,72,73,74,75,76,77,78,72,73,74,75,76,77,78,72,73,74,75,76,77,78,72,73,74,75,76,77,78,72,73,74,75,76,77,78,72,73,74,75,76,77,78,72,73,74,75,76,77,78,72,73,74,75,76,77,78,72,73,74,75,76,77,78,72,73,74,75,76,77,78,72,73,74,75,76,77,78,72,73,74,75,76,77,78,72,73,
      79,80,81,82,83,84,85,79,80,81,82,83,84,85,79,80,81,82,83,84,85,79,80,81,82,83,84,85,79,80,81,82,83,84,85,79,80,81,82,83,84,85,79,80,81,82,83,84,85,79,80,81,82,83,84,85,79,80,81,82,83,84,85,79,80,81,82,83,84,85,79,80,81,82,83,84,85,79,80,81,82,83,84,85,79,80,81,82,83,84,85,79,80,81,82,83,84,85,79,80,
      86,87,88,89,90,91,92,86,87,88,89,90,91,92,86,87,88,89,90,91,92,86,87,88,89,90,91,92,86,87,88,89,90,91,92,86,87,88,89,90,91,92,86,87,88,89,90,91,92,86,87,88,89,90,91,92,86,87,88,89,90,91,92,86,87,88,89,90,91,92,86,87,88,89,90,91,92,86,87,88,89,90,91,92,86,87,88,89,90,91,92,86,87,88,89,90,91,92,86,87,
      93,94,95,96,97,98,99,93,94,95,96,97,98,99,93,94,95,96,97,98,99,93,94,95,96,97,98,99,93,94,95,96,97,98,99,93,94,95,96,97,98,99,93,94,95,96,97,98,99,93,94,95,96,97,98,99,93,94,95,96,97,98,99,93,94,95,96,97,98,99,93,94,95,96,97,98,99,93,94,95,96,97,98,99,93,94,95,96,97,98,99,93,94,95,96,97,98,99,93,94,
      100,101,102,103,104,105,106,100,101,102,103,104,105,106,100,101,102,103,104,105,106,100,101,102,103,104,105,106,100,101,102,103,104,105,106,100,101,102,103,104,105,106,100,101,102,103,104,105,106,100,101,102,103,104,105,106,100,101,102,103,104,105,106,100,101,102,103,104,105,106,100,101,102,103,104,105,106,100,101,102,103,104,105,106,100,101,102,103,104,105,106,100,101,102,103,104,105,106,100,101,
      107,108,109,110,111,112,113,107,108,109,110,111,112,113,107,108,109,110,111,112,113,107,108,109,110,111,112,113,107,108,109,110,111,112,113,107,108,109,110,111,112,113,107,108,109,110,111,112,113,107,108,109,110,111,112,113,107,108,109,110,111,112,113,107,108,109,110,111,112,113,107,108,109,110,111,112,113,107,108,109,110,111,112,113,107,108,109,110,111,112,113,107,108,109,110,111,112,113,107,108,
      65,66,67,68,69,70,71,65,66,67,68,69,70,71,65,66,67,68,69,70,71,65,66,67,68,69,70,71,65,66,67,68,69,70,71,65,66,67,68,69,70,71,65,66,67,68,69,70,71,65,66,67,68,69,70,71,65,66,67,68,69,70,71,65,66,67,68,69,70,71,65,66,67,68,69,70,71,65,66,67,68,69,70,71,65,66,67,68,69,70,71,65,66,67,68,69,70,71,65,66,
      72,73,74,75,76,77,78,72,73,74,75,76,77,78,72,73,74,75,76,77,78,72,73,74,75,76,77,78,72,73,74,75,76,77,78,72,73,74,75,76,77,78,72,73,74,75,76,77,78,72,73,74,75,76,77,78,72,73,74,75,76,77,78,72,73,74,75,76,77,78,72,73,74,75,76,77,78,72,73,74,75,76,77,78,72,73,74,75,76,77,78,72,73,74,75,76,77,78,72,73,
      79,80,81,82,83,84,85,79,80,81,82,83,84,85,79,80,81,82,83,84,85,79,80,81,82,83,84,85,79,80,81,82,83,84,85,79,80,81,82,83,84,85,79,80,81,82,83,84,85,79,80,81,82,83,84,85,79,80,81,82,83,84,85,79,80,81,82,83,84,85,79,80,81,82,83,84,85,79,80,81,82,83,84,85,79,80,81,82,83,84,85,79,80,81,82,83,84,85,79,80,
      86,87,88,89,90,91,92,86,87,88,89,90,91,92,86,87,88,89,90,91,92,86,87,88,89,90,91,92,86,87,88,89,90,91,92,86,87,88,89,90,91,92,86,87,88,89,90,91,92,86,87,88,89,90,91,92,86,87,88,89,90,91,92,86,87,88,89,90,91,92,86,87,88,89,90,91,92,86,87,88,89,90,91,92,86,87,88,89,90,91,92,86,87,88,89,90,91,92,86,87,
      93,94,95,96,97,98,99,93,94,95,96,97,98,99,93,94,95,96,97,98,99,93,94,95,96,97,98,99,93,94,95,96,97,98,99,93,94,95,96,97,98,99,93,94,95,96,97,98,99,93,94,95,96,97,98,99,93,94,95,96,97,98,99,93,94,95,96,97,98,99,93,94,95,96,97,98,99,93,94,95,96,97,98,99,93,94,95,96,97,98,99,93,94,95,96,97,98,99,93,94,
      100,101,102,103,104,105,106,100,101,102,103,104,105,106,100,101,102,103,104,105,106,100,101,102,103,104,105,106,100,101,102,103,104,105,106,100,101,102,103,104,105,106,100,101,102,103,104,105,106,100,101,102,103,104,105,106,100,101,102,103,104,105,106,100,101,102,103,104,105,106,100,101,102,103,104,105,106,100,101,102,103,104,105,106,100,101,102,103,104,105,106,100,101,102,103,104,105,106,100,101,
      107,108,109,110,111,112,113,107,108,109,110,111,112,113,107,108,109,110,111,112,113,107,108,109,110,111,112,113,107,108,109,110,111,112,113,107,108,109,110,111,112,113,107,108,109,110,111,112,113,107,108,109,110,111,112,113,107,108,109,110,111,112,113,107,108,109,110,111,112,113,107,108,109,110,111,112,113,107,108,109,110,111,112,113,107,108,109,110,111,112,113,107,108,109,110,111,112,113,107,108,
      65,66,67,68,69,70,71,65,66,67,68,69,70,71,65,66,67,68,69,70,71,65,66,67,68,69,70,71,65,66,67,68,69,70,71,65,66,67,68,69,70,71,65,66,67,68,69,70,71,65,66,67,68,69,70,71,65,66,67,68,69,70,71,65,66,67,68,69,70,71,65,66,67,68,69,70,71,65,66,67,68,69,70,71,65,66,67,68,69,70,71,65,66,67,68,69,70,71,65,66,
      72,73,74,75,76,77,78,72,73,74,75,76,77,78,72,73,74,75,76,77,78,72,73,74,75,76,77,78,72,73,74,75,76,77,78,72,73,74,75,76,77,78,72,73,74,75,76,77,78,72,73,74,75,76,77,78,72,73,74,75,76,77,78,72,73,74,75,76,77,78,72,73,74,75,76,77,78,72,73,74,75,76,77,78,72,73,74,75,76,77,78,72,73,74,75,76,77,78,72,73,
      79,80,81,82,83,84,85,79,80,81,82,83,84,85,79,80,81,82,83,84,85,79,80,81,82,83,84,85,79,80,81,82,83,84,85,79,80,81,82,83,84,85,79,80,81,82,83,84,85,79,80,81,82,83,84,85,79,80,81,82,83,84,85,79,80,81,82,83,84,85,79,80,81,82,83,84,85,79,80,81,82,83,84,85,79,80,81,82,83,84,85,79,80,81,82,83,84,85,79,80,
      86,87,88,89,90,91,92,86,87,88,89,90,91,92,86,87,88,89,90,91,92,86,87,88,89,90,91,92,86,87,88,89,90,91,92,86,87,88,89,90,91,92,86,87,88,89,90,91,92,86,87,88,89,90,91,92,86,87,88,89,90,91,92,86,87,88,89,90,91,92,86,87,88,89,90,91,92,86,87,88,89,90,91,92,86,87,88,89,90,91,92,86,87,88,89,90,91,92,86,87,
      93,94,95,96,97,98,99,93,94,95,96,97,98,99,93,94,95,96,97,98,99,93,94,95,96,97,98,99,93,94,95,96,97,98,99,93,94,95,96,97,98,99,93,94,95,96,97,98,99,93,94,95,96,97,98,99,93,94,95,96,97,98,99,93,94,95,96,97,98,99,93,94,95,96,97,98,99,93,94,95,96,97,98,99,93,94,95,96,97,98,99,93,94,95,96,97,98,99,93,94,
      100,101,102,103,104,105,106,100,101,102,103,104,105,106,100,101,102,103,104,105,106,100,101,102,103,104,105,106,100,101,102,103,104,105,106,100,101,102,103,104,105,106,100,101,102,103,104,105,106,100,101,102,103,104,105,106,100,101,102,103,104,105,106,100,101,102,103,104,105,106,100,101,102,103,104,105,106,100,101,102,103,104,105,106,100,101,102,103,104,105,106,100,101,102,103,104,105,106,100,101,
      107,108,109,110,111,112,113,107,108,109,110,111,112,113,107,108,109,110,111,112,113,107,108,109,110,111,112,113,107,108,109,110,111,112,113,107,108,109,110,111,112,113,107,108,109,110,111,112,113,107,108,109,110,111,112,113,107,108,109,110,111,112,113,107,108,109,110,111,112,113,107,108,109,110,111,112,113,107,108,109,110,111,112,113,107,108,109,110,111,112,113,107,108,109,110,111,112,113,107,108,
      65,66,67,68,69,70,71,65,66,67,68,69,70,71,65,66,67,68,69,70,71,65,66,67,68,69,70,71,65,66,67,68,69,70,71,65,66,67,68,69,70,71,65,66,67,68,69,70,71,65,66,67,68,69,70,71,65,66,67,68,69,70,71,65,66,67,68,69,70,71,65,66,67,68,69,70,71,65,66,67,68,69,70,71,65,66,67,68,69,70,71,65,66,67,68,69,70,71,65,66,
      72,73,74,75,76,77,78,72,73,74,75,76,77,78,72,73,74,75,76,77,78,72,73,74,75,76,77,78,72,73,74,75,76,77,78,72,73,74,75,76,77,78,72,73,74,75,76,77,78,72,73,74,75,76,77,78,72,73,74,75,76,77,78,72,73,74,75,76,77,78,72,73,74,75,76,77,78,72,73,74,75,76,77,78,72,73,74,75,76,77,78,72,73,74,75,76,77,78,72,73,
      79,80,81,82,83,84,85,79,80,81,82,83,84,85,79,80,81,82,83,84,85,79,80,81,82,83,84,85,79,80,81,82,83,84,85,79,80,81,82,83,84,85,79,80,81,82,83,84,85,79,80,81,82,83,84,85,79,80,81,82,83,84,85,79,80,81,82,83,84,85,79,80,81,82,83,84,85,79,80,81,82,83,84,85,79,80,81,82,83,84,85,79,80,81,82,83,84,85,79,80,
      86,87,88,89,90,91,92,86,87,88,89,90,91,92,86,87,88,89,90,91,92,86,87,88,89,90,91,92,86,87,88,89,90,91,92,86,87,88,89,90,91,92,86,87,88,89,90,91,92,86,87,88,89,90,91,92,86,87,88,89,90,91,92,86,87,88,89,90,91,92,86,87,88,89,90,91,92,86,87,88,89,90,91,92,86,87,88,89,90,91,92,86,87,88,89,90,91,92,86,87,
      93,94,95,96,97,98,99,93,94,95,96,97,98,99,93,94,95,96,97,98,99,93,94,95,96,97,98,99,93,94,95,96,97,98,99,93,94,95,96,97,98,99,93,94,95,96,97,98,99,93,94,95,96,97,98,99,93,94,95,96,97,98,99,93,94,95,96,97,98,99,93,94,95,96,97,98,99,93,94,95,96,97,98,99,93,94,95,96,97,98,99,93,94,95,96,97,98,99,93,94,
      100,101,102,103,104,105,106,100,101,102,103,104,105,106,100,101,102,103,104,105,106,100,101,102,103,104,105,106,100,101,102,103,104,105,106,100,101,102,103,104,105,106,100,101,102,103,104,105,106,100,101,102,103,104,105,106,100,101,102,103,104,105,106,100,101,102,103,104,105,106,100,101,102,103,104,105,106,100,101,102,103,104,105,106,100,101,102,103,104,105,106,100,101,102,103,104,105,106,100,101,
      107,108,109,110,111,112,113,107,108,109,110,111,112,113,107,108,109,110,111,112,113,107,108,109,110,111,112,113,107,108,109,110,111,112,113,107,108,109,110,111,112,113,107,108,109,110,111,112,113,107,108,109,110,111,112,113,107,108,109,110,111,112,113,107,108,109,110,111,112,113,107,108,109,110,111,112,113,107,108,109,110,111,112,113,107,108,109,110,111,112,113,107,108,109,110,111,112,113,107,108,
      65,66,67,68,69,70,71,65,66,67,68,69,70,71,65,66,67,68,69,70,71,65,66,67,68,69,70,71,65,66,67,68,69,70,71,65,66,67,68,69,70,71,65,66,67,68,69,70,71,65,66,67,68,69,70,71,65,66,67,68,69,70,71,65,66,67,68,69,70,71,65,66,67,68,69,70,71,65,66,67,68,69,70,71,65,66,67,68,69,70,71,65,66,67,68,69,70,71,65,66,
      72,73,74,75,76,77,78,72,73,74,75,76,77,78,72,73,74,75,76,77,78,72,73,74,75,76,77,78,72,73,74,75,76,77,78,72,73,74,75,76,77,78,72,73,74,75,76,77,78,72,73,74,75,76,77,78,72,73,74,75,76,77,78,72,73,74,75,76,77,78,72,73,74,75,76,77,78,72,73,74,75,76,77,78,72,73,74,75,76,77,78,72,73,74,75,76,77,78,72,73,
      79,80,81,82,83,84,85,79,80,81,82,83,84,85,79,80,81,82,83,84,85,79,80,81,82,83,84,85,79,80,81,82,83,84,85,79,80,81,82,83,84,85,79,80,81,82,83,84,85,79,80,81,82,83,84,85,79,80,81,82,83,84,85,79,80,81,82,83,84,85,79,80,81,82,83,84,85,79,80,81,82,83,84,85,79,80,81,82,83,84,85,79,80,81,82,83,84,85,79,80,
      86,87,88,89,90,91,92,86,87,88,89,90,91,92,86,87,88,89,90,91,92,86,87,88,89,90,91,92,86,87,88,89,90,91,92,86,87,88,89,90,91,92,86,87,88,89,90,91,92,86,87,88,89,90,91,92,86,87,88,89,90,91,92,86,87,88,89,90,91,92,86,87,88,89,90,91,92,86,87,88,89,90,91,92,86,87,88,89,90,91,92,86,87,88,89,90,91,92,86,87,
      93,94,95,96,97,98,99,93,94,95,96,97,98,99,93,94,95,96,97,98,99,93,94,95,96,97,98,99,93,94,95,96,97,98,99,93,94,95,96,97,98,99,93,94,95,96,97,98,99,93,94,95,96,97,98,99,93,94,95,96,97,98,99,93,94,95,96,97,98,99,93,94,95,96,97,98,99,93,94,95,96,97,98,99,93,94,95,96,97,98,99,93,94,95,96,97,98,99,93,94,
      100,101,102,103,104,105,106,100,101,102,103,104,105,106,100,101,102,103,104,105,106,100,101,102,103,104,105,106,100,101,102,103,104,105,106,100,101,102,103,104,105,106,100,101,102,103,104,105,106,100,101,102,103,104,105,106,100,101,102,103,104,105,106,100,101,102,103,104,105,106,100,101,102,103,104,105,106,100,101,102,103,104,105,106,100,101,102,103,104,105,106,100,101,102,103,104,105,106,100,101,
      107,108,109,110,111,112,113,107,108,109,110,111,112,113,107,108,109,110,111,112,113,107,108,109,110,111,112,113,107,108,109,110,111,112,113,107,108,109,110,111,112,113,107,108,109,110,111,112,113,107,108,109,110,111,112,113,107,108,109,110,111,112,113,107,108,109,110,111,112,113,107,108,109,110,111,112,113,107,108,109,110,111,112,113,107,108,109,110,111,112,113,107,108,109,110,111,112,113,107,108,
      65,66,67,68,69,70,71,65,66,67,68,69,70,71,65,66,67,68,69,70,71,65,66,67,68,69,70,71,65,66,67,68,69,70,71,65,66,67,68,69,70,71,65,66,67,68,69,70,71,65,66,67,68,69,70,71,65,66,67,68,69,70,71,65,66,67,68,69,70,71,65,66,67,68,69,70,71,65,66,67,68,69,70,71,65,66,67,68,69,70,71,65,66,67,68,69,70,71,65,66,
      72,73,74,75,76,77,78,72,73,74,75,76,77,78,72,73,74,75,76,77,78,72,73,74,75,76,77,78,72,73,74,75,76,77,78,72,73,74,75,76,77,78,72,73,74,75,76,77,78,72,73,74,75,76,77,78,72,73,74,75,76,77,78,72,73,74,75,76,77,78,72,73,74,75,76,77,78,72,73,74,75,76,77,78,72,73,74,75,76,77,78,72,73,74,75,76,77,78,72,73,
      79,80,81,82,83,84,85,79,80,81,82,83,84,85,79,80,81,82,83,84,85,79,80,81,82,83,84,85,79,80,81,82,83,84,85,79,80,81,82,83,84,85,79,80,81,82,83,84,85,79,80,81,82,83,84,85,79,80,81,82,83,84,85,79,80,81,82,83,84,85,79,80,81,82,83,84,85,79,80,81,82,83,84,85,79,80,81,82,83,84,85,79,80,81,82,83,84,85,79,80,
      86,87,88,89,90,91,92,86,87,88,89,90,91,92,86,87,88,89,90,91,92,86,87,88,89,90,91,92,86,87,88,89,90,91,92,86,87,88,89,90,91,92,86,87,88,89,90,91,92,86,87,88,89,90,91,92,86,87,88,89,90,91,92,86,87,88,89,90,91,92,86,87,88,89,90,91,92,86,87,88,89,90,91,92,86,87,88,89,90,91,92,86,87,88,89,90,91,92,86,87,
      93,94,95,96,97,98,99,93,94,95,96,97,98,99,93,94,95,96,97,98,99,93,94,95,96,97,98,99,93,94,95,96,97,98,99,93,94,95,96,97,98,99,93,94,95,96,97,98,99,93,94,95,96,97,98,99,93,94,95,96,97,98,99,93,94,95,96,97,98,99,93,94,95,96,97,98,99,93,94,95,96,97,98,99,93,94,95,96,97,98,99,93,94,95,96,97,98,99,93,94,
      100,101,102,103,104,105,106,100,101,102,103,104,105,106,100,101,102,103,104,105,106,100,101,102,103,104,105,106,100,101,102,103,104,105,106,100,101,102,103,104,105,106,100,101,102,103,104,105,106,100,101,102,103,104,105,106,100,101,102,103,104,105,106,100,101,102,103,104,105,106,100,101,102,103,104,105,106,100,101,102,103,104,105,106,100,101,102,103,104,105,106,100,101,102,103,104,105,106,100,101,
      107,108,109,110,111,112,113,107,108,109,110,111,112,113,107,108,109,110,111,112,113,107,108,109,110,111,112,113,107,108,109,110,111,112,113,107,108,109,110,111,112,113,107,108,109,110,111,112,113,107,108,109,110,111,112,113,107,108,109,110,111,112,113,107,108,109,110,111,112,113,107,108,109,110,111,112,113,107,108,109,110,111,112,113,107,108,109,110,111,112,113,107,108,109,110,111,112,113,107,108,
      65,66,67,68,69,70,71,65,66,67,68,69,70,71,65,66,67,68,69,70,71,65,66,67,68,69,70,71,65,66,67,68,69,70,71,65,66,67,68,69,70,71,65,66,67,68,69,70,71,65,66,67,68,69,70,71,65,66,67,68,69,70,71,65,66,67,68,69,70,71,65,66,67,68,69,70,71,65,66,67,68,69,70,71,65,66,67,68,69,70,71,65,66,67,68,69,70,71,65,66,
      72,73,74,75,76,77,78,72,73,74,75,76,77,78,72,73,74,75,76,77,78,72,73,74,75,76,77,78,72,73,74,75,76,77,78,72,73,74,75,76,77,78,72,73,74,75,76,77,78,72,73,74,75,76,77,78,72,73,74,75,76,77,78,72,73,74,75,76,77,78,72,73,74,75,76,77,78,72,73,74,75,76,77,78,72,73,74,75,76,77,78,72,73,74,75,76,77,78,72,73
    </data>
  </layer>
</map>