<?xml version="1.0" encoding="UTF-8"?>
<map version="1.10" tiledversion="1.11.2" orientation="orthogonal" renderorder="left-up" width="100"
  height="100" tilewidth="32" tileheight="32" infinite="0" nextlayerid="2" nextobjectid="1">
  <tileset firstgid="30" source="../tilesets/grass.tsx" />
  <layer id="1" name="Calque de Tuiles 1" width="100" height="100">
    <data encoding="csv">
      34,46,39,48,31,46,55,55,40,42,40,47,32,57,47,49,49,38,55,40,30,49,55,49,31,49,50,56,47,46,33,47,30,55,47,32,49,55,49,49,42,47,55,47,30,33,42,58,42,38,55,30,41,41,56,46,34,48,50,34,58,56,56,54,38,55,34,50,47,46,58,40,48,46,41,31,39,30,54,58,39,54,38,47,50,41,55,49,42,56,42,33,48,40,33,38,34,46,58,39,
      39,39,42,47,31,38,31,42,47,33,30,30,30,40,39,30,46,30,56,39,48,50,30,38,56,30,34,30,33,54,50,30,58,47,56,34,54,56,55,49,46,31,32,50,40,31,41,54,41,40,56,31,49,57,56,41,54,39,57,33,41,47,39,54,30,31,34,49,31,30,34,49,34,33,41,55,31,31,47,31,48,30,46,50,34,40,46,48,50,55,30,40,47,33,46,34,54,30,58,57,
      42,50,55,41,31,39,42,40,48,54,39,57,55,56,46,49,46,50,50,41,31,31,40,41,42,47,54,49,30,54,55,54,56,38,32,56,47,49,38,46,40,33,55,58,57,46,57,55,30,48,32,41,47,39,39,56,56,33,50,54,41,55,47,49,33,30,30,54,38,47,41,30,48,56,54,30,32,48,31,42,49,40,46,38,32,50,54,50,55,48,46,42,58,49,50,38,40,47,34,46,
      30,40,42,33,49,56,57,56,40,32,57,31,33,47,30,40,57,57,33,41,49,54,56,30,41,47,56,39,42,49,56,46,41,55,57,50,55,55,40,46,56,57,40,40,33,54,39,57,58,50,55,30,49,58,56,39,32,41,46,58,55,42,50,48,55,42,34,40,40,58,39,54,54,30,48,49,34,49,48,39,32,55,54,49,38,49,49,32,40,34,56,49,57,32,55,56,46,41,40,50,
      57,46,34,40,42,46,31,40,33,40,39,41,38,33,41,41,47,58,33,48,54,49,32,49,33,42,38,49,55,31,55,46,40,48,30,31,30,47,34,33,58,33,50,50,57,42,40,50,31,55,58,48,40,42,32,58,47,57,32,56,50,46,30,33,30,55,31,32,31,40,32,56,32,57,55,58,41,30,54,46,57,33,49,48,49,33,31,54,34,47,38,38,48,38,48,46,41,41,54,49,
      42,38,39,50,40,32,42,56,38,55,30,49,40,48,54,32,54,38,50,47,56,39,58,54,57,32,33,40,55,33,55,58,34,50,48,30,56,39,40,38,30,54,48,39,46,42,48,57,50,46,47,49,46,41,46,31,48,58,39,55,49,58,46,50,30,41,42,40,50,47,38,39,34,42,57,56,47,58,57,49,32,50,42,38,33,50,32,55,40,55,32,56,41,56,56,30,56,58,34,32,
      57,54,38,30,49,58,41,42,47,33,47,32,50,46,55,41,54,32,49,58,49,57,30,39,58,33,31,39,31,57,40,47,40,41,38,58,30,32,56,39,30,55,31,39,55,47,30,38,31,54,48,46,41,40,40,47,33,54,54,55,33,31,49,49,54,57,48,56,54,34,47,56,57,39,46,38,38,49,34,57,34,55,55,48,58,54,46,49,56,58,46,31,33,57,49,49,30,48,32,32,
      56,48,56,42,40,30,48,56,58,39,56,48,30,40,47,30,42,41,55,40,47,50,50,50,33,46,32,50,56,38,30,57,57,32,40,48,49,42,57,39,39,40,54,48,40,31,56,34,40,55,55,34,30,32,32,58,42,31,55,41,39,42,58,55,40,54,55,39,55,47,42,58,32,49,46,55,50,33,31,58,48,33,33,38,50,38,38,48,47,34,57,31,55,57,34,46,56,54,50,55,
      58,41,56,42,40,30,56,34,50,32,32,54,30,58,50,30,55,33,33,56,48,30,39,58,48,55,50,58,39,56,34,48,42,47,46,50,46,39,41,30,41,32,38,48,47,32,54,57,32,50,34,55,40,49,40,58,33,47,33,54,48,55,57,54,46,32,54,31,32,47,32,38,41,47,42,38,42,39,42,50,46,40,39,40,55,39,31,46,31,50,57,32,56,33,42,41,32,55,46,42,
      55,55,47,49,47,30,56,56,55,33,38,31,32,39,58,33,41,33,48,41,33,38,41,32,32,42,33,48,48,34,50,48,49,31,40,42,31,38,57,39,54,57,34,46,42,38,50,48,56,30,39,49,30,55,33,54,42,41,32,40,48,49,57,42,40,42,47,55,42,38,58,38,33,33,32,32,32,33,39,56,47,39,58,39,32,42,56,54,30,38,54,42,32,58,54,55,55,58,54,47,
      48,47,47,49,57,58,58,47,30,41,56,50,33,38,56,30,38,39,46,57,39,40,32,34,55,42,55,33,54,34,38,31,41,46,34,41,31,48,58,34,42,40,49,32,40,46,50,50,30,47,38,41,38,49,31,31,50,41,33,46,58,58,49,48,38,41,56,38,41,57,54,57,32,58,58,33,41,38,40,55,30,56,38,57,56,46,58,55,54,50,31,57,38,54,50,30,31,38,41,48,
      56,58,55,31,30,33,48,40,40,32,38,34,56,47,58,58,55,39,58,50,40,55,49,34,58,41,30,40,54,56,41,32,57,32,46,56,56,48,58,30,31,30,30,46,30,47,48,54,54,38,48,48,49,38,55,40,46,55,31,30,42,58,30,46,30,30,39,31,54,33,57,55,56,58,33,54,54,42,47,56,56,50,40,30,42,42,31,50,55,54,46,40,30,56,56,55,38,48,50,58,
      46,42,54,46,56,30,49,33,48,34,30,42,49,47,48,30,31,41,30,30,58,58,40,50,32,33,48,30,56,57,49,47,32,30,32,40,46,56,33,50,41,56,31,33,40,33,40,30,54,42,31,48,42,46,34,46,48,56,30,57,31,58,39,38,46,47,31,42,32,30,48,58,42,40,32,58,34,41,49,47,40,46,55,46,39,54,55,39,46,42,38,32,49,46,33,31,38,58,50,54,
      31,49,46,58,46,47,49,48,41,49,40,39,32,42,56,39,34,30,33,48,49,34,39,31,58,41,40,31,54,31,57,39,32,42,48,57,39,58,33,39,49,41,40,56,41,55,41,38,40,42,46,47,54,58,57,32,32,39,42,55,49,39,41,30,56,58,34,46,57,40,42,58,30,32,58,46,40,34,49,55,41,32,48,46,41,41,50,54,57,40,38,32,42,34,55,50,38,34,40,49,
      55,38,33,46,54,55,50,42,30,58,31,39,41,48,57,49,49,46,31,38,39,38,34,47,42,34,33,57,56,50,49,31,40,55,32,56,57,50,32,42,39,48,48,58,46,49,41,47,49,33,41,56,54,42,41,32,39,54,58,33,48,56,40,49,54,56,49,40,38,33,57,41,38,34,31,40,58,42,55,49,41,31,34,54,55,49,58,46,56,56,38,30,41,31,54,58,57,47,46,57,
      55,34,33,48,57,46,31,34,54,39,58,49,40,31,42,34,55,39,48,49,33,56,46,40,32,40,46,40,41,56,54,40,31,49,40,57,48,31,31,49,42,33,55,46,57,42,47,33,39,41,50,50,58,48,34,31,39,33,33,54,42,57,46,34,57,55,32,31,50,46,48,42,32,46,57,33,31,34,30,31,49,48,42,55,42,47,30,34,41,48,30,58,40,50,50,38,39,56,39,40,
      56,48,41,55,49,57,49,58,42,33,31,42,55,49,50,38,46,42,55,33,32,30,34,42,56,48,41,31,39,48,54,54,47,34,48,42,34,48,41,31,32,48,33,30,39,33,34,57,34,41,48,38,47,38,41,48,46,46,42,38,46,56,58,33,33,40,56,57,55,48,57,39,38,47,56,58,58,30,38,50,49,34,31,39,47,48,33,47,54,31,47,41,40,38,41,31,31,30,32,56,
      32,34,50,42,54,55,57,34,57,47,38,34,31,49,49,50,46,58,40,32,49,32,49,50,57,49,41,30,56,56,33,39,55,41,56,56,57,38,58,50,40,54,49,55,58,38,47,49,34,54,54,40,50,39,48,38,41,32,41,41,48,40,55,46,49,33,46,57,57,34,58,32,33,42,34,31,55,33,57,50,41,48,48,56,47,30,50,55,47,32,54,47,46,30,40,46,41,34,41,57,
      58,48,32,49,55,41,46,30,58,31,38,30,49,31,39,55,50,41,30,56,40,58,41,58,49,47,30,42,58,57,55,33,32,34,42,49,31,57,41,47,42,49,49,47,38,33,39,30,47,47,40,56,39,40,48,58,34,34,46,34,40,48,49,58,46,54,47,57,49,42,46,50,38,31,30,48,54,38,55,32,46,54,30,40,41,33,49,55,55,39,40,33,42,41,31,33,42,46,48,49,
      54,54,47,56,58,57,54,38,55,33,46,46,31,38,47,31,47,39,40,30,42,47,30,30,38,55,46,46,34,39,57,33,42,32,42,47,56,30,54,34,33,55,40,46,32,39,48,57,32,31,33,34,39,50,39,57,41,58,42,46,50,50,56,41,47,38,55,58,30,47,58,33,41,40,46,31,39,33,49,49,34,30,34,41,39,32,31,31,41,39,48,46,31,38,34,30,58,39,50,42,
      42,31,41,32,31,58,56,55,41,41,38,57,56,47,33,39,46,33,39,55,40,34,55,46,32,54,31,38,34,33,50,42,58,47,30,40,41,47,38,47,38,41,58,33,38,42,42,34,55,34,33,42,49,48,32,48,33,48,38,54,33,40,39,55,42,56,39,58,32,32,40,33,57,31,56,47,47,30,34,30,49,57,42,33,47,38,49,38,48,31,57,54,57,54,49,46,54,56,40,31,
      40,54,42,40,49,54,33,40,39,54,47,54,57,40,38,30,32,33,32,40,54,46,49,54,42,48,47,34,41,54,48,30,41,48,54,47,41,47,47,55,54,31,31,56,47,57,38,39,30,55,39,55,31,56,46,57,31,40,42,54,55,38,30,32,55,34,41,33,41,40,31,54,54,47,32,39,38,39,56,31,47,56,31,47,41,41,30,31,42,41,41,42,38,41,40,57,33,58,57,50,
      48,58,34,50,58,31,30,57,40,32,57,42,56,56,32,42,42,47,46,33,39,55,56,30,48,42,33,39,50,41,42,50,38,32,55,34,50,30,50,54,46,55,34,42,39,39,30,48,42,47,30,46,34,46,49,47,58,41,46,50,57,41,42,48,33,46,56,46,48,41,33,49,31,47,32,49,49,41,42,33,34,32,34,40,57,34,50,57,39,55,56,48,50,48,50,32,40,57,57,31,
      42,30,55,58,54,41,33,30,42,41,42,34,49,50,42,49,56,42,55,34,49,39,56,30,31,38,54,46,54,34,55,48,34,32,58,42,39,47,56,41,40,32,32,54,33,47,49,39,32,38,30,38,48,55,31,31,57,58,41,49,48,41,38,34,50,32,41,33,49,50,42,42,50,56,32,55,40,30,54,39,50,56,48,32,46,40,38,33,55,50,32,48,57,48,50,32,34,30,49,38,
      33,58,33,55,31,55,49,48,34,54,49,57,48,56,38,46,49,55,48,42,49,34,46,42,49,38,40,46,55,48,42,33,56,32,56,32,32,47,40,48,54,33,39,48,54,50,42,49,58,49,39,32,40,34,50,50,38,38,57,54,54,48,56,40,33,41,50,56,39,38,40,38,56,46,56,58,38,56,32,31,47,33,42,49,31,40,33,41,50,41,49,48,33,39,34,41,49,32,50,56,
      40,55,57,48,42,30,41,39,57,58,48,42,55,34,34,41,34,40,40,58,41,41,38,55,39,31,57,49,33,47,31,50,47,55,46,34,32,48,57,32,50,46,41,48,56,30,41,49,55,34,30,54,58,55,31,31,32,31,40,30,40,58,57,41,49,39,41,46,47,57,46,39,32,50,55,50,47,40,58,42,48,30,30,40,42,33,47,33,34,46,32,31,32,50,32,55,33,42,34,56,
      31,32,47,40,48,32,39,56,42,57,57,47,39,34,32,46,55,55,34,42,31,48,42,57,32,46,47,58,33,33,34,34,42,34,56,33,40,30,54,56,32,50,50,41,40,54,50,33,31,41,58,58,46,41,55,32,30,41,54,48,41,50,32,48,42,39,41,46,56,33,38,57,32,40,47,48,56,49,31,54,46,42,56,34,48,34,31,39,58,30,48,50,39,34,48,41,31,39,42,40,
      46,38,34,49,38,47,54,48,30,49,47,56,32,32,40,33,49,33,31,46,39,38,30,31,49,38,30,38,58,39,33,34,48,54,48,32,46,47,41,54,41,31,38,33,55,57,49,48,56,49,49,38,31,34,47,56,46,41,57,33,39,49,42,40,47,50,47,57,32,38,49,58,30,33,48,58,39,47,42,58,39,48,49,57,40,41,46,48,40,30,40,55,56,31,38,49,58,42,46,39,
      46,38,32,55,56,58,48,40,56,47,42,33,55,41,42,31,49,42,39,50,38,58,30,46,34,38,54,31,39,46,33,31,48,55,40,56,40,46,30,48,46,49,30,34,41,47,42,30,39,55,41,48,32,54,42,46,54,42,32,33,41,40,38,46,31,31,50,32,30,54,47,32,41,58,56,31,57,33,34,39,47,46,33,41,48,50,39,46,33,49,42,55,56,32,31,55,31,31,48,48,
      56,54,58,40,34,50,40,54,49,46,47,30,57,30,46,49,58,34,55,41,55,41,56,48,42,31,49,30,55,39,39,34,57,56,41,47,31,41,30,50,40,50,54,41,33,42,54,50,34,31,49,38,49,34,30,47,48,33,42,57,41,54,39,33,38,41,48,41,57,47,57,42,33,33,46,34,32,50,33,38,32,42,42,48,48,33,49,31,48,33,55,41,48,31,33,55,56,54,32,32,
      38,57,56,32,31,42,46,40,57,49,33,42,50,30,55,38,57,47,34,55,42,58,41,57,41,46,32,50,41,48,38,55,42,46,50,50,38,55,41,55,50,34,34,50,50,56,47,32,30,58,38,42,55,47,34,39,58,54,34,50,47,54,48,31,33,57,55,50,56,56,30,46,42,41,42,31,34,50,58,50,58,57,42,31,58,50,49,57,31,32,50,56,41,46,47,38,54,30,41,42,
      34,56,30,57,46,55,30,32,30,48,30,33,55,38,57,41,42,49,46,40,58,38,32,40,55,46,42,58,39,41,34,41,40,47,46,54,42,58,47,50,58,55,56,40,50,38,46,47,57,50,48,50,40,40,54,56,48,50,42,34,32,50,42,41,55,33,39,31,50,58,48,32,50,49,58,49,41,56,47,49,49,30,30,42,30,31,30,48,40,50,57,50,38,46,32,58,58,31,31,50,
      42,46,56,54,49,48,42,34,41,38,31,40,57,30,33,47,49,55,38,47,31,47,49,57,54,47,40,38,54,49,33,46,58,33,46,57,30,40,33,48,48,50,31,40,57,49,40,46,30,40,38,42,34,40,55,58,31,41,39,41,50,38,33,50,31,40,50,47,34,46,49,32,33,57,33,56,46,33,47,32,49,54,49,33,49,30,50,56,49,42,38,31,58,47,30,38,40,58,31,30,
      56,34,39,38,33,46,48,32,50,56,38,55,41,41,50,38,54,49,47,46,58,34,34,41,46,54,40,57,58,55,41,34,41,38,41,50,50,33,34,42,32,49,34,50,56,33,40,49,57,47,49,42,41,34,48,34,56,30,54,46,58,47,47,50,33,54,49,39,54,54,48,49,56,46,58,48,32,55,34,50,50,56,30,40,30,41,56,46,31,56,31,56,41,41,50,54,47,38,30,48,
      42,38,40,38,42,39,50,30,40,48,42,32,46,32,46,47,41,48,46,46,32,46,58,38,50,38,49,39,30,41,48,48,46,31,58,42,34,42,33,31,33,48,41,48,38,38,54,41,58,32,30,57,48,40,40,55,38,46,47,46,48,47,58,54,39,42,49,39,42,46,56,47,56,50,54,57,49,49,48,49,39,54,50,47,49,30,39,41,42,41,47,55,58,56,39,34,46,58,39,46,
      40,33,42,48,33,55,40,30,54,33,33,50,47,49,32,54,31,54,38,40,50,40,33,31,34,32,41,40,55,42,49,40,40,46,33,39,40,48,58,50,56,30,32,40,54,57,30,40,41,38,31,32,54,33,30,50,40,34,47,40,54,32,30,46,55,30,47,58,38,31,58,40,46,46,40,58,40,47,30,32,32,32,41,46,30,30,57,31,54,42,50,54,56,42,30,40,34,41,55,42,
      34,30,39,41,32,32,31,48,55,55,46,50,40,34,30,39,30,49,42,46,34,42,48,30,33,34,50,32,30,55,34,31,55,46,57,47,33,30,50,34,49,38,38,41,57,55,54,55,54,57,57,33,34,50,48,31,31,58,39,34,50,54,55,39,38,50,49,32,38,55,31,41,41,30,34,46,57,49,55,50,58,57,58,55,48,32,31,39,34,47,56,33,38,47,46,41,46,55,46,31,
      57,47,54,58,48,33,38,41,32,57,38,55,31,46,57,30,50,55,55,33,50,32,42,54,38,30,41,49,56,56,33,49,40,48,47,50,30,46,32,30,40,56,57,40,34,34,38,56,48,30,56,31,41,54,41,58,48,38,50,58,47,50,31,56,38,50,32,32,55,41,38,31,58,54,54,50,33,55,34,32,49,58,49,33,46,33,54,57,47,58,55,31,49,31,34,49,34,32,32,47,
      49,57,57,47,38,31,55,54,54,55,47,58,31,55,42,40,38,30,54,58,50,48,55,50,42,56,50,57,46,34,38,50,41,55,39,41,42,55,38,34,56,57,48,50,58,31,39,58,33,46,46,58,46,33,34,56,31,30,34,57,30,48,31,56,41,31,57,55,55,38,41,49,38,38,57,58,38,39,56,57,57,57,42,58,55,32,54,40,32,58,33,58,48,41,30,39,55,41,41,34,
      33,56,30,46,50,38,42,33,38,38,41,54,31,41,47,30,58,49,50,40,30,47,39,54,33,46,30,41,32,42,48,55,32,38,33,30,39,30,56,38,49,49,49,39,42,34,56,41,32,55,40,47,31,32,56,31,30,41,38,32,49,34,39,34,41,46,46,39,57,39,41,30,39,33,33,41,46,31,56,39,33,39,50,55,46,30,34,32,38,40,38,40,42,49,33,33,41,58,55,48,
      32,38,48,48,46,50,57,47,41,39,34,49,49,55,32,32,31,42,40,48,55,33,57,42,48,41,30,46,39,48,39,58,46,58,48,39,33,58,50,58,41,48,56,33,56,47,30,34,49,33,48,56,30,54,57,48,32,58,30,42,49,56,33,40,56,56,55,41,54,34,55,38,48,33,49,57,49,33,49,56,47,38,56,42,39,41,42,41,54,40,47,54,55,42,31,58,38,39,32,46,
      55,47,56,42,57,58,48,48,33,50,55,39,31,50,46,41,32,56,42,56,56,41,46,40,48,54,30,54,42,50,30,41,48,30,40,31,49,54,48,54,32,31,30,38,33,50,38,54,30,54,56,38,57,56,30,42,57,33,48,56,32,57,46,47,38,55,49,39,32,58,48,31,55,55,48,39,39,49,38,34,34,39,49,41,50,54,30,30,55,47,50,48,39,40,55,32,31,42,48,33,
      46,32,32,42,55,39,38,57,30,42,48,33,49,32,40,41,30,42,31,42,42,46,38,32,50,48,47,47,57,49,49,49,47,31,38,56,39,54,58,57,39,46,50,33,47,31,54,39,46,47,34,32,31,33,42,42,41,46,46,50,38,50,30,33,38,58,31,47,55,41,32,33,55,31,57,32,55,58,30,49,31,58,42,39,33,41,46,31,39,32,47,33,33,38,42,32,48,55,38,58,
      34,58,47,34,55,49,39,30,54,47,30,38,56,54,55,56,58,42,41,50,55,31,58,57,49,31,50,49,32,57,56,46,57,32,32,32,57,46,49,38,42,31,39,47,39,40,33,58,47,38,42,39,55,41,54,42,40,56,50,32,41,39,39,56,54,47,58,39,33,54,46,32,54,31,57,33,47,42,55,48,48,56,48,39,56,49,50,42,30,48,57,56,34,58,50,54,34,57,47,38,
      39,56,54,48,34,32,50,47,55,48,47,42,48,38,46,39,39,39,49,50,34,56,58,32,56,50,49,48,40,46,32,38,34,50,33,34,57,38,47,32,58,48,30,41,41,33,50,40,41,49,56,31,57,42,50,38,56,32,48,58,41,55,49,57,49,49,42,42,42,54,38,39,38,50,46,42,50,30,57,33,33,41,54,47,57,41,34,39,42,38,41,57,40,56,38,41,50,33,39,50,
      48,48,57,33,31,55,46,33,42,49,50,49,39,38,54,32,50,58,50,31,49,55,56,47,32,30,46,56,54,54,57,58,34,50,30,57,55,31,57,32,38,41,57,46,31,41,50,56,39,39,49,32,38,40,57,54,42,30,32,41,39,38,40,55,57,30,41,49,56,46,42,56,30,55,48,34,32,41,57,41,34,32,57,42,47,34,42,39,42,46,31,58,33,42,49,34,50,56,30,58,
      31,41,55,42,40,49,41,56,30,32,49,38,41,42,38,41,58,30,41,56,41,40,49,48,46,58,31,56,49,57,39,40,48,46,48,31,49,40,39,56,57,46,33,34,54,39,55,47,34,55,46,55,57,31,34,39,40,33,40,55,49,49,31,33,56,49,38,40,48,54,54,57,56,58,55,34,42,33,54,31,39,30,46,47,58,57,57,32,56,47,38,55,58,34,54,38,48,57,46,46,
      41,58,48,50,41,33,33,56,49,42,48,42,47,54,56,58,39,30,33,49,58,32,31,58,50,47,31,57,42,39,30,30,47,56,55,46,49,50,57,54,54,46,34,40,34,42,55,58,47,41,32,33,50,31,46,50,30,41,54,34,38,58,31,54,58,56,54,46,49,54,47,39,54,47,32,41,38,38,40,58,38,38,58,39,54,49,38,32,39,50,33,42,30,56,54,30,33,38,33,31,
      49,40,57,42,42,41,48,39,47,54,31,56,56,38,42,34,32,49,50,32,42,39,58,41,33,50,47,42,57,30,57,42,41,57,50,46,34,46,30,57,31,55,31,38,57,47,30,54,46,47,46,39,34,41,41,49,41,56,46,34,31,58,31,57,38,54,34,31,33,34,47,41,40,30,49,32,58,56,47,54,41,40,48,47,47,41,30,47,33,31,50,33,46,30,50,55,46,54,58,54,
      54,48,58,50,57,32,40,49,32,46,34,49,54,49,33,46,54,54,30,54,46,41,48,39,58,42,39,49,46,49,39,34,57,46,47,38,34,47,58,46,47,55,55,58,38,39,57,42,56,41,40,33,38,41,42,46,34,46,33,48,54,33,31,33,47,42,34,40,58,58,40,31,54,50,40,54,41,50,33,31,30,50,57,48,58,30,40,57,47,32,31,49,50,58,41,50,58,30,38,50,
      40,31,56,32,58,34,33,32,49,55,42,30,55,34,42,58,41,57,39,54,34,39,31,32,41,56,57,34,58,39,58,30,40,33,42,30,39,32,38,50,50,39,48,32,30,50,58,33,39,40,40,55,39,30,31,31,30,47,39,42,38,42,34,57,40,38,55,57,47,30,48,40,33,49,38,55,50,58,41,58,48,34,49,48,56,42,40,54,50,58,33,33,48,42,57,50,54,58,31,49,
      54,46,30,46,40,55,54,48,54,58,41,38,55,49,47,31,55,49,58,49,30,39,55,56,42,49,49,32,58,34,31,46,58,38,41,42,34,42,34,38,30,55,31,56,50,57,56,34,39,42,42,39,49,57,34,57,40,57,38,32,57,32,48,49,49,55,34,49,55,49,39,32,41,30,42,46,32,58,32,31,32,47,38,34,38,57,50,47,39,58,47,48,58,47,56,34,30,42,50,57,
      49,38,58,34,31,48,58,32,30,48,42,33,48,42,58,39,55,46,56,54,32,30,34,46,32,32,38,34,34,57,48,41,56,42,31,46,54,56,50,40,57,57,57,41,33,41,50,57,46,30,55,58,41,50,48,39,48,33,30,41,46,40,30,32,38,33,56,48,33,57,46,54,56,48,34,31,54,34,34,33,38,55,55,47,42,48,31,33,58,46,50,55,56,50,41,38,54,50,38,39,
      57,48,30,47,34,54,55,57,38,49,57,30,58,56,40,42,33,31,32,54,33,49,48,47,31,33,34,50,34,32,49,32,30,47,38,39,33,39,39,41,40,57,50,58,50,32,32,58,57,39,49,34,55,57,39,31,47,41,57,55,42,50,42,56,47,38,42,48,30,39,40,56,48,42,57,41,49,49,34,57,30,38,56,41,41,41,38,47,38,34,47,48,34,48,49,50,49,32,34,49,
      48,38,56,55,54,55,31,54,54,50,56,32,34,41,38,38,31,32,57,46,58,54,54,56,31,38,54,41,58,46,54,39,48,46,48,49,39,56,50,50,30,40,32,32,48,58,57,56,32,55,39,50,56,34,30,40,58,38,32,30,30,39,58,49,41,58,41,31,46,32,58,38,49,42,56,56,49,55,38,57,55,33,47,47,54,41,38,55,56,47,50,34,33,48,42,48,46,41,32,31,
      55,40,58,31,49,56,49,56,34,42,47,46,33,41,48,48,58,48,40,47,49,40,49,58,32,40,58,30,55,48,47,56,55,31,55,47,56,30,40,57,40,54,47,34,47,55,48,56,58,41,48,34,49,39,33,34,33,55,32,39,47,33,46,38,32,58,47,56,46,33,58,34,31,30,54,33,31,40,58,40,42,30,58,47,50,38,38,57,38,49,47,55,49,33,32,39,48,55,58,58,
      49,49,49,55,58,32,55,38,58,40,32,56,31,38,47,34,38,46,42,58,31,34,49,50,33,46,57,50,33,55,55,49,57,48,47,47,34,54,34,57,33,50,57,42,47,38,38,42,38,40,39,56,54,49,58,30,31,38,58,39,50,56,41,46,56,39,50,33,41,40,31,48,40,41,40,58,40,54,40,30,50,34,38,54,49,50,42,31,42,56,30,30,46,34,33,34,39,55,58,49,
      56,33,58,46,57,46,57,49,31,33,42,42,57,33,33,54,32,30,38,48,47,33,33,47,49,40,46,41,54,54,40,46,50,49,33,56,58,34,55,40,57,50,40,54,39,38,58,50,46,34,31,32,32,49,40,31,46,49,40,41,50,55,48,33,31,46,30,31,39,46,41,54,34,33,57,47,47,42,33,33,46,55,39,34,58,38,54,38,33,38,31,40,39,50,57,41,57,42,41,47,
      31,56,34,50,41,58,34,42,33,48,58,31,46,38,49,57,46,41,41,33,46,54,38,31,34,32,49,55,56,55,49,33,41,42,39,55,33,41,58,38,34,48,48,41,34,32,34,49,54,55,39,32,34,56,47,30,39,56,46,30,47,50,46,55,47,32,42,39,48,55,49,32,57,31,39,54,38,58,56,50,49,46,30,30,54,46,46,50,57,49,39,42,34,58,58,55,48,34,40,31,
      40,34,33,40,54,42,30,50,31,39,38,57,54,57,30,38,55,39,41,42,56,57,38,47,30,58,50,56,54,50,40,58,41,49,49,57,58,31,31,49,55,58,58,39,33,38,32,42,42,31,56,42,48,38,49,32,42,41,33,40,54,42,55,54,55,40,31,48,40,46,55,58,57,50,48,48,46,49,42,31,41,54,47,48,32,50,40,48,40,57,48,39,50,46,46,34,57,31,58,41,
      41,40,31,32,31,58,39,41,42,49,47,47,31,30,39,42,42,47,48,55,34,55,48,49,31,54,49,55,57,34,57,58,56,33,33,34,33,41,38,39,47,33,56,30,49,58,39,47,42,41,30,47,56,42,58,49,50,50,38,41,57,48,49,30,31,39,49,54,58,38,58,32,31,56,34,49,58,46,49,54,41,58,48,56,38,39,48,42,39,55,38,41,32,31,54,48,42,40,33,58,
      50,58,48,39,58,31,48,31,55,54,47,58,38,42,50,49,38,49,46,49,30,32,34,40,40,50,46,46,47,30,39,57,49,31,49,55,54,55,33,39,39,57,30,38,57,46,33,38,33,56,41,33,47,41,50,39,32,55,47,33,50,47,40,31,40,40,32,50,40,40,50,41,34,54,49,56,31,33,49,41,39,58,39,56,57,39,40,46,55,34,39,40,32,56,31,54,54,38,41,30,
      48,40,33,41,38,49,42,47,54,47,55,47,41,31,46,41,39,46,50,38,39,31,41,39,47,55,56,40,49,38,49,57,55,38,32,31,58,56,47,46,56,56,40,40,38,46,39,42,50,57,47,56,33,54,57,34,33,34,47,38,32,34,46,49,54,57,42,49,30,46,47,56,34,32,33,40,34,31,46,46,34,40,49,42,57,57,31,42,42,41,57,57,42,34,48,55,39,48,33,46,
      58,56,34,58,57,31,34,54,38,50,50,41,57,32,31,48,50,39,54,50,39,50,50,32,56,32,33,39,40,57,46,41,55,56,49,33,30,41,33,55,32,32,56,38,42,49,32,40,32,41,41,42,34,49,56,41,47,50,32,38,50,49,34,46,56,46,57,56,38,49,33,58,57,55,31,47,56,46,42,39,41,40,57,40,54,54,49,47,38,38,32,30,55,38,33,57,41,30,58,40,
      55,42,30,55,47,47,33,55,57,46,48,39,34,32,30,57,48,50,54,30,49,39,57,40,47,49,30,49,39,41,57,50,47,54,54,41,42,56,34,47,39,34,46,57,50,39,39,42,54,57,58,56,34,58,57,57,50,38,41,57,56,30,50,50,50,32,47,34,42,54,31,48,39,55,47,47,30,56,30,34,50,41,57,34,49,42,54,38,55,33,30,49,31,46,47,46,39,31,40,40,
      32,57,49,56,38,58,56,58,34,56,56,39,38,48,57,57,31,39,32,50,48,38,56,55,34,40,33,38,33,57,33,32,56,32,54,30,50,34,55,39,41,58,33,57,49,31,55,42,54,40,40,42,46,30,40,49,57,58,50,41,46,57,40,49,40,30,32,50,32,31,55,54,39,48,57,42,55,47,31,42,46,57,31,54,55,46,48,57,32,33,38,34,55,57,33,34,38,58,48,50,
      41,56,40,31,30,55,57,31,56,34,32,39,56,48,39,58,46,33,56,40,48,38,30,56,42,58,32,56,46,47,49,42,39,40,34,34,34,34,55,49,40,58,40,49,54,49,48,42,32,49,54,49,47,33,31,56,56,32,38,30,49,31,57,34,47,55,54,49,57,38,56,57,34,30,50,31,38,57,50,57,41,39,42,32,40,30,33,48,32,31,46,57,57,38,33,56,57,40,50,48,
      50,57,56,33,32,39,54,42,38,42,32,56,38,33,47,40,32,57,55,38,48,55,50,38,48,56,39,50,34,39,48,33,39,56,57,56,38,33,47,55,49,46,30,54,41,30,54,48,33,48,46,47,34,40,31,41,50,56,46,48,33,38,48,38,56,42,39,56,39,57,34,46,32,40,30,49,49,41,46,46,39,55,58,30,41,31,47,55,57,38,39,46,42,42,47,38,57,57,42,30,
      47,32,38,42,57,46,47,50,46,31,31,38,30,47,30,54,38,48,47,58,48,50,42,58,41,49,41,42,41,42,50,33,41,56,33,34,34,33,56,56,55,42,50,31,41,58,32,49,34,38,46,31,48,50,30,50,34,46,41,54,48,31,41,47,57,47,54,47,54,56,54,33,32,31,39,54,34,46,55,40,39,34,39,42,48,40,31,34,31,56,56,55,30,40,49,49,58,56,42,55,
      58,56,54,33,57,40,41,47,41,30,41,30,48,54,57,47,46,54,50,57,40,57,41,42,31,57,32,41,41,47,31,47,32,30,31,31,30,42,39,50,33,39,49,34,39,40,49,42,46,34,55,31,47,46,48,47,58,57,58,48,56,54,40,56,49,50,56,48,30,54,41,31,30,32,39,58,32,32,31,50,33,40,46,41,30,50,30,31,32,48,42,30,38,57,46,49,48,34,50,40,
      34,48,39,40,40,55,56,34,57,46,55,58,38,50,38,56,57,49,47,39,46,31,42,41,56,38,30,39,48,48,48,50,41,31,38,32,54,48,32,46,39,48,47,56,56,42,46,38,34,58,55,58,39,32,49,40,32,42,55,50,30,31,46,57,41,56,33,30,41,47,39,33,49,48,54,48,54,40,49,30,55,30,56,42,39,58,55,41,55,58,55,46,41,39,42,34,39,48,55,49,
      46,41,58,33,50,48,41,34,34,40,58,41,54,55,58,32,34,42,41,56,31,49,48,39,50,31,58,30,46,49,32,57,46,49,34,40,54,40,41,55,47,55,49,38,40,48,56,54,47,41,56,30,31,40,50,33,39,42,58,57,33,30,42,56,54,54,33,31,41,40,57,33,56,55,38,49,48,42,54,48,31,46,41,33,42,34,39,57,46,38,34,50,57,31,55,33,34,55,47,47,
      49,57,48,48,30,49,46,54,50,32,48,49,48,48,48,41,50,58,50,42,32,32,31,42,40,58,54,50,57,42,56,30,58,50,55,48,42,50,55,41,57,31,30,41,47,33,33,42,32,58,34,33,30,50,47,39,38,57,48,46,54,48,42,30,38,46,42,56,33,39,42,54,46,38,32,34,55,56,41,55,42,48,42,47,40,34,40,32,31,48,34,48,31,50,38,48,30,54,46,48,
      46,50,58,40,42,46,38,31,50,34,42,33,31,49,41,57,47,33,41,40,49,48,39,32,48,39,31,50,42,31,48,40,42,38,32,50,31,56,41,31,54,55,57,55,31,46,30,56,58,30,38,38,47,39,30,46,42,30,48,58,34,57,58,33,46,49,56,41,33,41,46,40,34,46,56,34,54,47,46,54,33,56,31,50,39,48,47,40,55,50,38,55,40,46,40,39,58,40,34,30,
      48,34,40,39,48,39,31,33,50,31,39,47,39,54,55,31,41,56,48,30,54,54,38,58,30,31,58,42,57,32,48,56,58,49,48,57,49,41,39,32,41,48,39,31,47,32,56,48,54,49,39,32,31,50,40,42,32,40,39,54,30,32,55,54,30,30,48,42,58,57,31,38,34,34,30,55,40,39,55,58,48,34,58,49,32,46,55,42,41,49,55,58,50,33,49,48,47,39,49,46,
      46,33,34,30,30,58,48,39,57,56,40,30,39,34,57,30,31,46,39,56,32,30,55,48,34,47,38,48,56,40,47,33,46,42,49,55,39,50,57,48,57,46,55,48,58,47,49,38,46,54,38,54,39,48,57,46,55,31,55,32,48,57,34,55,40,56,30,33,32,58,55,49,31,40,50,48,46,40,46,30,49,32,48,32,48,57,49,40,50,34,41,33,46,48,56,57,57,56,54,42,
      34,38,32,39,54,48,54,55,48,39,50,50,55,42,57,56,42,47,38,49,46,58,42,50,39,58,40,54,33,39,41,48,33,41,49,56,32,48,31,58,40,40,34,42,42,40,54,49,57,41,30,41,32,55,33,55,42,31,58,47,30,30,41,41,46,58,38,54,30,50,54,40,54,57,48,34,34,42,39,48,57,33,38,41,56,34,30,40,57,50,34,48,55,57,33,38,50,50,47,54,
      31,54,34,47,39,48,42,41,40,38,33,47,47,41,46,34,46,57,48,40,46,39,31,40,42,55,31,42,41,46,46,40,49,58,30,42,39,57,54,31,49,46,48,33,56,42,42,40,47,31,56,31,48,39,38,54,47,49,57,46,38,40,42,56,56,30,56,54,42,32,40,54,58,34,33,56,55,42,48,57,33,38,41,33,47,33,31,47,34,33,33,58,32,55,54,47,55,50,39,39,
      46,40,46,58,47,40,49,32,50,38,42,41,33,56,49,46,39,38,57,55,50,49,48,38,49,30,49,46,42,58,33,54,38,47,55,56,55,56,57,40,55,39,49,46,30,55,32,32,47,58,48,30,49,54,38,40,55,32,57,40,55,38,31,31,38,33,38,40,42,46,38,33,56,46,48,30,46,55,47,38,58,40,56,46,47,49,54,49,33,47,48,34,54,41,33,42,33,31,41,50,
      56,50,30,47,41,32,58,47,33,34,48,50,49,42,32,55,30,46,39,42,33,54,31,57,47,38,34,30,50,48,41,39,30,47,41,54,30,41,57,57,30,31,48,48,30,30,55,50,49,41,49,41,33,50,32,31,30,48,32,41,30,31,49,48,33,31,40,58,54,33,50,39,31,56,38,34,50,54,41,38,56,41,49,32,33,38,32,38,31,40,31,34,34,47,47,42,31,41,41,56,
      34,38,33,34,41,58,47,57,42,39,38,58,57,47,41,56,32,31,39,41,48,33,30,39,50,42,58,49,32,50,58,46,34,49,40,49,47,31,48,31,32,31,57,56,48,34,50,47,40,31,50,41,50,58,30,54,49,47,58,57,39,42,57,58,31,54,47,41,47,40,42,40,40,55,50,48,48,48,58,40,42,57,54,55,30,50,57,41,41,42,50,46,38,48,38,55,49,46,58,42,
      49,57,49,46,38,34,40,40,42,34,49,34,30,31,57,32,41,58,40,48,46,39,39,56,57,39,40,42,34,31,58,47,33,57,56,56,47,39,46,58,42,49,31,46,48,34,49,41,55,46,42,55,47,39,32,54,31,34,58,58,56,46,54,42,32,39,49,58,34,56,57,46,33,48,58,54,33,55,42,32,57,41,47,38,58,56,41,30,32,32,39,40,57,56,39,41,48,54,40,55,
      34,42,38,30,56,30,58,33,56,42,56,50,54,49,57,32,49,39,56,46,46,50,31,32,55,50,33,58,50,56,42,38,54,34,41,56,58,40,40,39,47,58,39,41,32,48,39,41,49,56,46,31,34,58,30,42,31,49,34,30,46,32,32,54,56,31,56,50,32,56,50,58,46,49,50,42,46,34,47,54,33,55,50,32,41,50,54,40,32,34,55,50,48,58,32,50,54,31,34,33,
      57,41,50,31,38,40,50,55,42,48,55,57,33,33,48,38,48,57,46,58,57,31,50,50,30,48,54,34,58,30,42,42,41,54,49,54,30,49,55,50,47,30,50,46,32,31,32,33,33,46,41,49,39,55,40,58,56,46,39,47,33,46,47,32,34,55,34,54,46,49,34,38,41,40,48,39,41,55,47,50,32,54,55,55,32,33,50,32,34,47,46,49,34,42,46,57,54,39,30,58,
      33,31,38,33,46,30,49,50,49,34,46,48,34,49,56,31,30,39,54,57,47,33,33,40,34,31,33,56,39,46,50,47,47,50,56,50,58,54,57,57,34,41,49,32,38,34,40,34,56,42,50,41,46,57,58,58,49,40,42,41,50,33,33,34,57,31,58,34,54,40,50,42,32,58,31,42,54,47,47,50,58,50,41,42,49,55,50,33,57,46,41,57,31,54,41,58,33,57,56,42,
      30,41,30,38,33,55,41,56,30,32,33,32,39,30,33,55,57,55,50,54,41,41,31,56,32,30,46,32,34,49,49,58,32,34,30,38,57,58,56,42,33,41,49,42,47,31,57,58,48,32,46,57,40,55,31,30,38,31,54,47,50,47,39,31,30,38,38,31,58,47,38,30,56,56,57,39,46,39,31,49,39,33,47,32,48,30,57,57,41,57,42,40,57,34,46,55,38,38,40,41,
      58,57,38,56,39,48,49,30,58,39,33,55,47,38,39,57,54,42,40,30,32,55,34,50,55,58,48,58,56,49,55,30,42,30,46,39,30,42,49,58,39,32,58,47,32,32,49,39,41,32,42,56,32,40,40,39,40,49,40,32,31,41,33,48,49,32,48,46,58,54,33,41,30,54,48,31,39,34,50,40,30,55,40,34,46,39,49,47,54,49,30,41,38,31,32,41,33,47,47,39,
      38,30,32,57,31,47,57,38,39,56,39,47,32,58,55,30,34,42,38,56,46,58,48,46,54,49,32,57,30,54,58,57,54,50,54,57,41,58,47,42,55,46,57,57,33,55,31,40,46,56,57,49,39,50,47,46,57,48,46,58,31,54,49,33,34,50,39,57,48,48,40,46,30,57,34,38,39,56,57,41,50,54,40,48,40,39,58,32,49,31,39,42,56,47,41,40,48,39,54,34,
      58,39,54,30,40,40,34,50,56,54,38,55,57,38,30,34,32,30,49,32,55,49,42,54,38,41,46,56,58,57,46,39,56,30,41,57,39,41,58,46,40,31,42,47,32,57,31,55,34,49,39,46,38,55,57,38,32,56,48,38,47,31,30,30,41,50,54,34,31,39,33,56,55,30,30,54,46,34,54,42,57,32,56,42,30,58,38,46,50,47,46,42,56,39,33,33,49,56,31,33,
      39,30,57,58,57,48,39,38,38,39,39,57,57,57,50,32,55,56,39,50,34,39,49,47,39,41,56,56,57,47,31,55,42,48,38,41,39,32,30,57,48,31,49,50,30,48,32,54,50,57,34,48,50,32,41,39,57,50,42,31,50,30,41,47,41,38,42,41,42,46,48,57,31,40,55,39,31,57,58,40,41,58,41,32,40,38,54,50,41,57,50,31,55,32,47,54,58,38,41,39,
      47,32,38,56,50,34,58,32,54,42,42,40,30,46,47,56,55,34,49,46,34,40,50,49,42,39,30,49,40,56,41,42,58,46,32,39,42,32,56,40,50,32,49,39,58,58,50,47,40,46,47,54,33,50,58,56,40,48,50,49,49,49,33,48,50,48,34,48,30,32,57,46,48,30,50,41,32,49,40,38,55,47,56,48,47,42,56,30,39,58,42,38,39,49,39,31,31,40,56,58,
      38,32,49,46,49,41,42,55,33,48,50,39,47,46,31,34,40,34,32,40,34,31,30,31,47,47,46,56,57,34,49,55,56,34,33,54,41,55,42,46,55,56,34,55,40,46,33,33,38,30,40,58,34,38,38,54,33,32,49,33,39,40,38,58,40,32,32,32,47,42,42,47,47,38,49,57,54,31,58,38,39,34,48,58,30,48,40,58,58,39,56,48,34,31,42,39,42,55,31,32,
      33,33,38,55,48,54,46,54,48,31,41,32,57,48,55,41,54,50,56,30,48,57,32,42,58,42,56,38,56,58,31,50,31,32,34,48,50,34,48,50,50,55,46,33,49,42,33,42,42,46,30,39,41,34,50,30,34,56,33,30,42,32,32,38,58,34,57,30,31,57,50,38,39,55,40,58,57,58,48,55,56,46,47,55,46,55,34,42,49,55,49,40,39,39,39,34,33,46,46,47,
      55,32,48,55,33,56,32,54,39,30,39,33,38,57,55,34,31,33,40,48,58,49,41,55,34,31,40,56,30,30,50,55,48,47,47,50,58,58,58,30,33,49,56,33,31,48,41,58,33,49,46,30,31,32,55,39,48,41,48,33,46,38,41,41,30,38,39,31,48,55,47,33,31,40,57,40,33,41,57,46,50,56,33,48,33,57,54,56,32,47,34,58,38,57,39,32,39,55,54,54,
      31,56,38,55,40,31,32,47,46,55,48,54,33,42,58,41,30,33,58,34,48,47,30,42,50,54,32,57,30,48,48,56,54,32,38,56,49,41,38,56,42,46,39,31,31,47,42,56,39,39,55,39,57,40,47,38,40,55,34,40,34,46,55,34,58,33,38,30,46,32,32,46,56,57,33,38,50,49,32,32,58,46,34,58,33,54,58,46,32,50,41,33,54,38,50,30,57,50,41,30,
      39,40,42,31,34,47,41,42,31,47,40,48,48,57,30,31,31,39,54,46,42,32,41,39,42,48,49,41,55,57,57,31,48,57,32,58,32,54,41,31,41,58,41,42,50,58,41,32,47,55,47,30,46,46,42,40,48,30,31,38,42,49,41,48,42,31,58,42,58,42,39,56,49,38,49,41,30,41,41,58,48,40,31,54,48,42,40,50,42,34,38,48,50,31,40,39,56,58,38,34,
      31,34,57,33,57,31,49,41,48,49,56,49,47,33,31,50,33,41,31,56,38,30,50,49,39,39,38,33,31,58,55,32,54,42,31,31,38,48,32,47,32,56,30,39,30,48,42,46,54,56,40,41,34,39,31,56,42,57,30,54,32,56,49,47,47,39,58,56,46,41,55,50,32,42,41,58,42,38,32,54,48,58,54,30,47,42,38,32,33,48,40,32,30,47,46,56,38,55,31,32,
      39,46,40,40,56,46,48,39,56,33,55,30,31,57,39,57,33,32,55,31,58,41,48,34,30,50,54,40,58,39,42,38,39,48,32,47,34,39,30,42,30,56,38,32,31,47,48,40,30,48,54,40,33,30,42,33,42,50,58,49,55,55,56,50,32,40,30,33,58,50,50,48,39,33,31,30,49,49,32,50,42,31,46,47,39,58,33,30,41,34,55,38,32,33,54,47,40,40,32,39,
      48,39,48,49,50,32,58,39,48,48,55,30,40,30,47,58,33,49,50,42,48,39,41,55,50,58,33,33,32,30,31,41,46,42,31,39,54,40,34,57,54,41,56,49,40,55,30,32,38,46,41,49,46,30,55,33,34,49,33,41,33,33,47,31,46,49,39,30,48,47,30,48,57,47,48,56,48,31,57,33,39,30,46,57,38,40,38,33,56,32,54,40,46,55,41,39,34,56,46,46,
      32,57,33,47,47,48,57,31,39,55,58,47,57,58,46,55,46,49,33,32,42,47,42,50,54,33,31,56,30,47,56,39,55,54,47,56,30,50,38,38,57,47,46,57,42,50,46,54,38,56,39,46,56,30,56,30,42,33,54,49,55,47,55,54,33,48,57,46,46,42,54,31,41,32,54,31,56,46,32,49,50,30,47,41,57,31,33,57,38,57,46,42,58,42,50,55,46,48,50,41
    </data>
  </layer>
</map>